assets/parsing/logo.svg

<svg width="52" height="15" viewBox="0 0 52 15" fill="none" xmlns="http://www.w3.org/2000/svg">
<path d="M0.265181 15V0.454545H10.0663V2.99006H3.34047V6.45597H9.56206V8.99148H3.34047V12.4645H10.0947V15H0.265181Z" fill="currentColor"/>
<path d="M18.8513 6.52699V8.92756H12.2178V6.52699H18.8513ZM23.5934 15H20.2979L25.3192 0.454545H29.2823L34.2965 15H31.001L27.3576 3.77841H27.2439L23.5934 15ZM23.3874 9.28267H31.1715V11.6832H23.3874V9.28267ZM35.6472 15V0.454545H41.3858C42.4891 0.454545 43.4289 0.665246 44.2055 1.08665C44.982 1.50331 45.5738 2.08333 45.981 2.8267C46.393 3.56534 46.5989 4.41761 46.5989 5.38352C46.5989 6.34943 46.3906 7.2017 45.9739 7.94034C45.5573 8.67898 44.9536 9.25426 44.1628 9.66619C43.3769 10.0781 42.4251 10.2841 41.3077 10.2841H37.6501V7.8196H40.8106C41.4024 7.8196 41.8901 7.7178 42.2736 7.5142C42.6619 7.30587 42.9507 7.01941 43.1401 6.65483C43.3342 6.28551 43.4313 5.86174 43.4313 5.38352C43.4313 4.90057 43.3342 4.47917 43.1401 4.11932C42.9507 3.75473 42.6619 3.47301 42.2736 3.27415C41.8854 3.07055 41.393 2.96875 40.7964 2.96875H38.7225V15H35.6472ZM51.2717 0.454545V15H48.1964V0.454545H51.2717Z" fill="#0A80EC"/>
</svg>

<svg viewBox="0 0 52 15" fill="none" xmlns="http://www.w3.org/2000/svg">
    <path d="M.265 15V.455h9.801V2.99H3.34v3.466h6.222v2.535H3.34v3.473h6.755V15H.265z" fill="currentColor" />
    <path
        d="M18.851 6.527v2.4h-6.633v-2.4h6.633zM23.593 15h-3.295L25.319.455h3.963L34.297 15H31L27.358 3.778h-.114L23.594 15zm-.206-5.717h7.785v2.4h-7.785v-2.4zM35.647 15V.455h5.739c1.103 0 2.043.21 2.82.632a4.28 4.28 0 011.775 1.74c.412.738.618 1.59.618 2.557 0 .965-.208 1.818-.625 2.556-.417.739-1.02 1.314-1.811 1.726-.786.412-1.738.618-2.855.618H37.65V7.82h3.16c.592 0 1.08-.102 1.464-.306.388-.208.677-.495.866-.86.194-.368.291-.792.291-1.27 0-.483-.097-.905-.29-1.265a1.944 1.944 0 00-.867-.845c-.389-.203-.881-.305-1.478-.305h-2.074V15h-3.075zM51.272.455V15h-3.076V.455h3.076z"
        fill="#0A80EC" />
</svg>
